Catalina-dark/actions/16/view-left-close.svg

<svg width="16" height="16" version="1.1" viewBox="0 0 16 16" xmlns="http://www.w3.org/2000/svg">
<defs>
<style id="current-color-scheme" type="text/css">.ColorScheme-Text { color:#5c616c; } .ColorScheme-Highlight { color:#5294e2; }</style>
</defs>
<path class="ColorScheme-Text" d="m16 1c-5.333-2e-3 -10.667 0.0059062-16 0.0039062v14c5.333 2e-3 10.667-0.005906 16-0.003906v-14zm-7 2 5 0.0039062v10.002l-5-0.001953v-10.004zm-6.5 2 1.5 1.5 1.5-1.5 1.5 1.5-1.5 1.5 1.5 1.5-1.5 1.5-1.5-1.5-1.5 1.5-1.5-1.5 1.5-1.5-1.5-1.5 1.5-1.5z" fill="#dedede" fill-opacity=".85098"/>
</svg>

<?xml version="1.0" encoding="UTF-8" standalone="no"?>
<svg
   xmlns:dc="http://purl.org/dc/elements/1.1/"
   xmlns:cc="http://creativecommons.org/ns#"
   xmlns:rdf="http://www.w3.org/1999/02/22-rdf-syntax-ns#"
   xmlns:svg="http://www.w3.org/2000/svg"
   xmlns="http://www.w3.org/2000/svg"
   xmlns:sodipodi="http://sodipodi.sourceforge.net/DTD/sodipodi-0.dtd"
   xmlns:inkscape="http://www.inkscape.org/namespaces/inkscape"
   width="16"
   height="16"
   viewBox="0 0 16 16"
   version="1.1"
   id="svg7"
   sodipodi:docname="view-left-close.svg"
   inkscape:version="0.92.4 5da689c313, 2019-01-14">
  <metadata
     id="metadata11">
    <rdf:RDF>
      <cc:Work
         rdf:about="">
        <dc:format>image/svg+xml</dc:format>
        <dc:type
           rdf:resource="http://purl.org/dc/dcmitype/StillImage" />
      </cc:Work>
    </rdf:RDF>
  </metadata>
  <sodipodi:namedview
     pagecolor="#ffffff"
     bordercolor="#666666"
     borderopacity="1"
     objecttolerance="10"
     gridtolerance="10"
     guidetolerance="10"
     inkscape:pageopacity="0"
     inkscape:pageshadow="2"
     inkscape:window-width="640"
     inkscape:window-height="480"
     id="namedview9"
     showgrid="false"
     inkscape:zoom="14.75"
     inkscape:cx="6.8135593"
     inkscape:cy="8"
     inkscape:window-x="0"
     inkscape:window-y="26"
     inkscape:window-maximized="0"
     inkscape:current-layer="svg7" />
  <defs
     id="defs3">
    <style
       id="current-color-scheme"
       type="text/css">
   .ColorScheme-Text { color:#5c616c; } .ColorScheme-Highlight { color:#5294e2; }
  </style>
  </defs>
  <path
     style="fill:#f1f6f8;fill-opacity:0.8509804"
     class="ColorScheme-Text"
     d="M 16 1 C 10.667 0.998 5.3333 1.0059062 0 1.0039062 L 0 15.003906 C 5.333 15.005906 10.6667 14.998 16 15 L 16 1 z M 9 3 L 14 3.0039062 L 14 13.005859 L 9 13.003906 L 9 3 z M 2.5 5 L 4 6.5 L 5.5 5 L 7 6.5 L 5.5 8 L 7 9.5 L 5.5 11 L 4 9.5 L 2.5 11 L 1 9.5 L 2.5 8 L 1 6.5 L 2.5 5 z"
     id="path5" />
</svg>
